!!!OTL: WIR WINDEN DIR DEN JUNGFERNKRANZ
!!!ARE: Europa, Mitteleuropa, Deutschland
!!!SCT: F0179
!!!YEM: Copyright 1995, estate of Helmut Schaffrath.
**kern
*ICvox
*Ivox
*M2/4
*k[]
*C:
{8G
=1
16c
16B
16c
16d
8e
8G
=2
16c
16B
16c
16d
8e
16r}
{16e
=3
8.d
16e
16d
16c
16B
16A
=4
16G
16F
4E}
{8G
=5
16c
16B
16c
16d
8e
8G
=6
16c
16B
16c
16d
8e
16r}
{16e
=7
8.d
16e
16d
16c
16B
16A
=8
8G
16B
16A
8G
8r}
=9
{4c
4e
=10
4g
4e}
=11
{16d
16c
16B
16c
8d
8e
=12
2c}
=13
{16d
16G
8G
16d
16G
8G
=14
16c
16d
4.e}
=15
{8g
16f
16e
16d
16c
16B
16A
=16
16G
16F
4E}
==
!!!AGN: Hochzeits - Lied
!!!ONB: ESAC (Essen Associative Code) Database: FINK
!!!AMT: simple duple
!!!AIN: vox
!!!EED: Helmut Schaffrath
!!!EEV: 1.0
*-
